X: 3
T: Cronin's
R: hornpipe
M: 4/4
L: 1/8
K: Dmaj
|: F>E |D>EF>G A>F (3ABc | d>ed>B A>Bd>e | f>ed>B A>FD>E | F>E (3EE^D E>GF>E |
D2 D>F A2 A>B | d2 d>B A>Bd>e | f>ed>B A<FE>G | F2 D2 D2 :|
|: c>d |e>cA>^G A2 (3cde | f>BB>^A B2 d>e | f>d (3edc d>B (3AGF | F>EE>^D (3EFG F>E |
D>EF>G A>F (3ABc | d>e (3dcB A>Bd>e | f>ed>B A2 (3EFG | F>D (3DDD D2 :|


Tune 478	Setting 29744

